!!!!SEGMENT: pl-wn--sd-xvi-o-279_anonim--kancjonal-zamoyskich-psalm-dawidow-cii-chwal-duszo-ma-pana-mego.krn
!!!cenid: 15xx:834
!!!COM: Anonim
!!!COM-rismID:
!!!CDT:
!!!CNT:
!!!GTL: Kancjonał Zamoyskich
!!!OTL: Psalm Dawidów CII/Chwal duszo ma pana mego
!!!PDT: 1558
!!!AGN:
!!!SMS-siglum: PL-Wn
!!!SMS-shelfmark: SD XVI.O.279
!!!SMS-shelfwork: G
!!!SMS-variant:
!!!SMS-altvar:
!!!NIFC-rismSourceID: 990072221
!!!NIFC-islandoraID:
!!!URL-pdf-islandora:
!!!URL-scan: https://polona.pl/item/psalm-dawidow-cij-z-lacinskiego-iezyka-na-polski-ku-spiewaniu-przelozony-argumentum-a,MTE3MTY3Mg/3/#info:metadata @EN{Scan on Polona} @PL{Skany w portalu Polona}
!!!ONB-nifc: UWAGA: proszę zapisywać tylko teksty występujące bezpośrednio pod nutami
!!!AIN: 1 alto 1 bass 1 soprn 1 tenor
!!!key: a:aeo
**kern	**text	**mod-text	**mod-text	**kern	**text	**mod-text	**mod-text	**kern	**text	**mod-text	**mod-text	**kern	**text	**mod-text	**text	**mod-text
*part4	*part4	*part4	*part4	*part3	*part3	*part3	*part3	*part2	*part2	*part2	*part2	*part1	*part1	*part1	*part1	*part1
*staff4	*staff4	*staff4	*staff4	*staff3	*staff3	*staff3	*staff3	*staff2	*staff2	*staff2	*staff2	*staff1	*staff1	*staff1	*staff1	*staff1
*>[A,A,B,B]	*	*	*	*>[A,A,B,B]	*	*	*	*>[A,A,B,B]	*	*	*	*>[A,A,B,B]	*	*	*	*
*>A	*	*	*	*>A	*	*	*	*>A	*	*	*	*>A	*	*	*	*
*I"BASS.	*	*	*	*I"TENOR.	*	*	*	*I"ALT.	*	*	*	*I"CANTVS.	*	*	*	*
*mI"Basso	*	*	*	*mI"Tenore	*	*	*	*mI"Alto	*	*	*	*mI"Soprano	*	*	*	*
*I'B	*	*	*	*I'T	*	*	*	*I'A	*	*	*	*I'S	*	*	*	*
*Ibass	*	*	*	*Itenor	*	*	*	*Ialto	*	*	*	*Isoprn	*	*	*	*
*ICvox	*	*	*	*ICvox	*	*	*	*ICvox	*	*	*	*ICvox	*	*	*	*
*clefF4	*	*	*	*clefC3	*	*	*	*clefC3	*	*	*	*clefC1	*	*	*	*
*	*	*	*	*mclefGv2	*	*	*	*mclefG2	*	*	*	*mclefG2	*	*	*	*
*k[]	*	*	*	*k[]	*	*	*	*k[]	*	*	*	*k[]	*	*	*	*
*a:aeo	*	*	*	*a:aeo	*	*	*	*a:aeo	*	*	*	*a:aeo	*	*	*	*
*M3/2	*	*	*	*M3/2	*	*	*	*M3/2	*	*	*	*M3/2	*	*	*	*
*met(C|)	*	*	*	*met(C|)	*	*	*	*met(C|)	*	*	*	*met(C|)	*	*	*	*
=1-	=1-	=1-	=1-	=1-	=1-	=1-	=1-	=1-	=1-	=1-	=1-	=1-	=1-	=1-	=1-	=1-
!!LO:TX:t=P:problem:w źródle wszystkie caudy po śródku
!!LO:TX:t=P:problem:w źródle metrum błędnie dwudzielne, w porozumieniu z NIFC przetranskrybowane jako trójdzielne
!!LO:TX:t=P:problem:w źródle podłożenie tekstu ciężkie do rozszyfrowania; tekst podłożony wg pomysłu transkrybenckiego
2r	.	.	.	2r	.	.	.	2r	.	.	.	2r	.	.	.	.
2r	.	.	.	2r	.	.	.	2r	.	.	.	2r	.	.	.	.
2AA/	.	Chwal	Dzię-	2A/	Chwal	Chwal	Dzię-	2e\	.	Chwal	Dzię-	2a/	Chwal	Chwal	Dzię-	Dzię-
=2-	=2-	=2-	=2-	=2-	=2-	=2-	=2-	=2-	=2-	=2-	=2-	=2-	=2-	=2-	=2-	=2-
1AA	.	du-	-kuj	1c	duſ-	du-	-kuj	1e	.	du-	-kuj	1a	duſ-	du-	-kuy	-kuj
2E\	.	-szo	z_ra-	2B/	-ſo	-szo	z_ra-	2e\	.	-szo	z_ra-	2g/	-ſo	-szo	z ra-	z_ra-
=3-	=3-	=3-	=3-	=3-	=3-	=3-	=3-	=3-	=3-	=3-	=3-	=3-	=3-	=3-	=3-	=3-
1F	.	ma	-do-	1A	ma	ma	-do-	2.c/	.	ma	-do-	1cc	ma	ma	-doſ-	-do-
.	.	.	.	.	.	.	.	4d\	.	.	.	.	.	.	.	.
2G\	.	Pa-	-ścią	2G/	pa-	Pa-	-ścią	2e\	.	Pa-	-ścią	2b\	pa-	Pa-	-cią	-ścią
=4-	=4-	=4-	=4-	=4-	=4-	=4-	=4-	=4-	=4-	=4-	=4-	=4-	=4-	=4-	=4-	=4-
1F	.	-na	sa-	1c	-na	-na	sa-	1A	.	-na	sa-	1a	-na	-na	ſa-	sa-
2F\	.	me-	-me-	2d\	me-	me-	-me-	2A/	.	me-	-me-	2a\	me-	me-	-me-	-me-
=5-	=5-	=5-	=5-	=5-	=5-	=5-	=5-	=5-	=5-	=5-	=5-	=5-	=5-	=5-	=5-	=5-
1E	.	-go	-mu	1e	-go.	-go	-mu	1B	.	-go	-mu	1g	-go/	-go	-(mu)	-mu
!	!	!	!	!LO:TX:b:B:t=etc.:mod=	!	!	!	!	!	!	!	!	!	!	!	!
2E\	.	ze	i-	2e\	.	ze	i-	2B/	.	ze	i-	2g\	ze	ze	y-	i-
=6-	=6-	=6-	=6-	=6-	=6-	=6-	=6-	=6-	=6-	=6-	=6-	=6-	=6-	=6-	=6-	=6-
1C	.	wszyt-	-mie-	1e	.	wszyt-	-mie-	4c\	.	wszyt-	-mie-	1g	wſſyt-	wszyt-	-mie-	-mie-
.	.	.	.	.	.	.	.	4d\	.	.	.	.	.	.	.	.
.	.	.	.	.	.	.	.	4e\	.	.	.	.	.	.	.	.
!	!	!	!	!	!	!	!	!LO:SIC:v:t=custos g	!	!	!	!	!	!	!	!
.	.	.	.	.	.	.	.	4f\	.	.	.	.	.	.	.	.
!	!	!	!	!	!	!	!	!LO:LB:g=original	!	!	!	!	!	!	!	!
2C/	.	-kie-	-niu	2e\	.	-kie-	-niu	2g\	.	-kie-	-niu	2e/	-kie-	-kie-	-niu	-niu
=7-	=7-	=7-	=7-	=7-	=7-	=7-	=7-	=7-	=7-	=7-	=7-	=7-	=7-	=7-	=7-	=7-
4C/	.	-go	Je-	1e	.	-go	Je-	2c/	.	-go	Je-	2.g/	-go	-go	ie-	Je-
!LO:SIC:v:t=custos E	!	!	!	!	!	!	!	!	!	!	!	!	!	!	!	!
4D/	.	.	.	.	.	.	.	.	.	.	.	.	.	.	.	.
!LO:LB:g=original	!	!	!	!	!	!	!	!	!	!	!	!	!	!	!	!
4E\	.	.	.	.	.	.	.	1g	.	ser-	-go	.	.	.	.	.
!	!	!	!	!	!	!	!	!	!	!	!	!LO:SIC:v:t=custos b	!	!	!	!
4F\	.	.	.	.	.	.	.	.	.	.	.	4a/	.	.	-go	.
!	!	!	!	!	!	!	!	!	!	!	!	!LO:LB:g=original	!	!	!	!
2G\	.	ser-	-go	2d\	.	ser-	-go	.	.	.	.	4b\	ſer-	ser-	ſwię-	-go
.	.	.	.	.	.	.	.	.	.	.	.	4a\	.	.	.	.
=8-	=8-	=8-	=8-	=8-	=8-	=8-	=8-	=8-	=8-	=8-	=8-	=8-	=8-	=8-	=8-	=8-
2A\	.	-ca	świę-	2c\	.	-ca	świę-	2f\	.	-ca	świę-	1cc	-ca	-ca	-te-	świę-
!	!	!	!	!LO:SIC:v:t=custos c	!	!	!	!	!	!	!	!	!	!	!	!
1G	.	swe-	-te-	1d	.	swe-	-te	1g	.	swe-	-te-	.	.	.	.	.
.	.	.	.	.	.	.	.	.	.	.	.	2b\	ſwe-	swe-	-mu.	-te-
!	!	!	!	!LO:LB:g=original	!	!	!	!	!	!	!	!	!	!	!	!
=9-	=9-	=9-	=9-	=9-	=9-	=9-	=9-	=9-	=9-	=9-	=9-	=9-	=9-	=9-	=9-	=9-
!	!	!	!	!LO:SIC:s=1.c	!	!	!	!	!	!	!	!LO:TX:b:B:t=Repetitur.:mod=	!	!	!	!
!LO:MO:mod=!null:null	!	!	!	!LO:MO:mod=!null:null	!	!	!	!LO:MO:mod=!null:null	!	!	!	!LO:MO:mod=!null:null	!	!	!	!
!LO:N:vis=1	!	!	!	!LO:N:vis=1	!	!	!	!LO:N:vis=1	!	!	!	!LO:N:vis=1	!	!	!	!
1.C	.	-go.	-mu.	1.c;	.	-go.	-mu.	1.e	.	-go.	-mu.	1.cc	-go.	-go.	.	-mu.
=10:|!	=10:|!	=10:|!	=10:|!	=10:|!	=10:|!	=10:|!	=10:|!	=10:|!	=10:|!	=10:|!	=10:|!	=10:|!	=10:|!	=10:|!	=10:|!	=10:|!
*>B	*	*	*	*>B	*	*	*	*>B	*	*	*	*>B	*	*	*	*
2r	.	.	.	2r	.	.	.	2r	.	.	.	2r	.	.	.	.
2r	.	.	.	2r	.	.	.	2r	.	.	.	2r	.	.	.	.
!	!	!	!	!	!	!	!	!LO:TX:t=P:problem:w źródle cauda nuty przekreślona ołówkiem	!	!	!	!	!	!	!	!
2C/	.	Nie	.	2c\	.	Nie	.	2e\	.	Nie	.	2cc\	Nie	Nie	.	.
=11-	=11-	=11-	=11-	=11-	=11-	=11-	=11-	=11-	=11-	=11-	=11-	=11-	=11-	=11-	=11-	=11-
1F	.	chciej	.	1c	.	chciej	.	1f	.	chciej	.	1cc	chciey	chciej	.	.
2C/	.	za-	.	2e\	.	za-	.	2g\	.	za-	.	2cc\	za-	za-	.	.
=12-	=12-	=12-	=12-	=12-	=12-	=12-	=12-	=12-	=12-	=12-	=12-	=12-	=12-	=12-	=12-	=12-
1G	.	-po-	.	1d	.	-po-	.	1g	.	-po-	.	2.b\	-po-	-po-	.	.
.	.	.	.	.	.	.	.	.	.	.	.	4a\	-m(i-	.	.	.
2C/	.	-mi-	.	2e\	.	-mi-	.	2g\	.	-mi-	.	2g/	-nać)	-mi-	.	.
=13-	=13-	=13-	=13-	=13-	=13-	=13-	=13-	=13-	=13-	=13-	=13-	=13-	=13-	=13-	=13-	=13-
!	!	!	!	!	!	!	!	!	!	!	!	!LO:TX:t=P:problem:w źródle pod nutą kreska	!	!	!	!
2C/	.	-nać	.	2c\	.	-nać	.	2e\	.	-nać	.	1a	ie-	-nać	.	.
2D/	.	.	.	1B	.	Je-	.	2f\	.	.	.	.	.	.	.	.
!LO:SIC:v:t=custos F	!	!	!	!	!	!	!	!	!	!	!	!	!	!	!	!
2E\	.	Je-	.	.	.	.	.	2e\	.	Je-	.	2g/	-go	Je-	.	.
!LO:LB:g=original	!	!	!	!	!	!	!	!	!	!	!	!	!	!	!	!
=14-	=14-	=14-	=14-	=14-	=14-	=14-	=14-	=14-	=14-	=14-	=14-	=14-	=14-	=14-	=14-	=14-
2.F\	.	-go	.	1A	.	-go	.	1c	.	-go	.	1a	do-	-go	.	.
4G\	.	.	.	.	.	.	.	.	.	.	.	.	.	.	.	.
!	!	!	!	!	!	!	!	!LO:SIC:v:t=custos A	!	!	!	!LO:SIC:v:t=custos f	!	!	!	!
2A\	.	do-	.	2A/	.	do-	.	2A/	.	do-	.	2e/	-bro-	do-	.	.
!	!	!	!	!	!	!	!	!LO:LB:g=original	!	!	!	!LO:LB:g=original	!	!	!	!
=15-	=15-	=15-	=15-	=15-	=15-	=15-	=15-	=15-	=15-	=15-	=15-	=15-	=15-	=15-	=15-	=15-
1D	.	-bro-	.	1d	.	-bro-	.	1A	.	-bro-	.	1f	-dziey-	-bro-	.	.
2G\	.	-dziej-	.	2d\	.	-dziej-	.	2B/	.	-dziej-	.	2g/	.	-dziej-	.	.
=16-	=16-	=16-	=16-	=16-	=16-	=16-	=16-	=16-	=16-	=16-	=16-	=16-	=16-	=16-	=16-	=16-
1D	.	-stwa	.	1d	.	-stwa	.	1A	.	-stwa	.	1a	-ſtwa	-stwa	.	.
2E\	.	wsze-	.	2B/	.	wsze-	.	2e\	.	wsze-	.	2g/	.	wsze-	.	.
=17-	=17-	=17-	=17-	=17-	=17-	=17-	=17-	=17-	=17-	=17-	=17-	=17-	=17-	=17-	=17-	=17-
!	!	!	!	!LO:SIC:v:t=custos A	!	!	!	!	!	!	!	!	!	!	!	!
2C/	.	-la-	.	2c/	.	-la-	.	2e\	.	-la-	.	1g	wſſel-	-la-	.	.
!	!	!	!	!LO:LB:g=original	!	!	!	!	!	!	!	!	!	!	!	!
1D	.	-kie-	.	1A	.	-kie-	.	1d	.	-kie-	.	.	.	.	.	.
!	!	!	!	!	!	!	!	!	!	!	!	!LO:SIC:s=2f#i	!	!	!	!
.	.	.	.	.	.	.	.	.	.	.	.	2f/	-kie-	-kie-	.	.
=18-	=18-	=18-	=18-	=18-	=18-	=18-	=18-	=18-	=18-	=18-	=18-	=18-	=18-	=18-	=18-	=18-
!LO:MO:mod=!null:null	!	!	!	!LO:MO:mod=!null:null	!	!	!	!LO:MO:mod=!null:null	!	!	!	!LO:MO:mod=!null:null	!	!	!	!
!LO:N:vis=1	!	!	!	!LO:N:vis=1	!	!	!	!LO:N:vis=1	!	!	!	!LO:N:vis=1	!	!	!	!
1.GG	.	-go	.	1.G	.	-go	.	1.d	.	-go	.	1.g	-(go)	-go	.	.
=19-	=19-	=19-	=19-	=19-	=19-	=19-	=19-	=19-	=19-	=19-	=19-	=19-	=19-	=19-	=19-	=19-
2r	.	.	.	2r	.	.	.	2r	.	.	.	2r	.	.	.	.
2r	.	.	.	2r	.	.	.	2r	.	.	.	2r	.	.	.	.
2G\	.	któ-	.	2G/	.	któ-	.	2d\	.	któ-	.	2g/	Kto-	któ-	.	.
=20-	=20-	=20-	=20-	=20-	=20-	=20-	=20-	=20-	=20-	=20-	=20-	=20-	=20-	=20-	=20-	=20-
1F	.	-ryż	.	1c	.	-ryż	.	1A	.	-ryż	.	1a	-ry	-ryż	.	.
2F\	.	jest	.	2c/	.	jest	.	2A/	.	jest	.	2a\	ieſt	jest	.	.
=21-	=21-	=21-	=21-	=21-	=21-	=21-	=21-	=21-	=21-	=21-	=21-	=21-	=21-	=21-	=21-	=21-
1D	.	mi-	.	1d	.	mi-	.	1A	.	mi-	.	1f	mi-	mi-	.	.
!LO:SIC:v:t=custos C	!	!	!	!	!	!	!	!	!	!	!	!	!	!	!	!
2D/	.	-ło-	.	2d\	.	-ło-	.	2A/	.	-ło-	.	2f/	-ło-	-ło-	.	.
!LO:LB:g=original	!	!	!	!	!	!	!	!	!	!	!	!	!	!	!	!
=22-	=22-	=22-	=22-	=22-	=22-	=22-	=22-	=22-	=22-	=22-	=22-	=22-	=22-	=22-	=22-	=22-
!LO:MO:mod=!null:null	!	!	!	!LO:MO:mod=!null:null	!	!	!	!LO:MO:mod=!null:null	!	!	!	!LO:MO:mod=!null:null	!	!	!	!
!LO:N:vis=1	!	!	!	!LO:N:vis=1	!	!	!	!LO:N:vis=1	!	!	!	!LO:N:vis=1	!	!	!	!
1.C	.	-sier-	.	1.e	.	-sier-	.	1.c	.	-sier-	.	1.g	-ſier-	-sier-	.	.
=23-	=23-	=23-	=23-	=23-	=23-	=23-	=23-	=23-	=23-	=23-	=23-	=23-	=23-	=23-	=23-	=23-
1F	.	-nym	.	1c	.	-nym	.	2.A/	.	-nym	.	1a	-(nym)	-nym	.	.
!	!	!	!	!	!	!	!	!LO:SIC:v:t=custos c	!	!	!	!	!	!	!	!
.	.	.	.	.	.	.	.	4B/	.	.	.	.	.	.	.	.
!	!	!	!	!	!	!	!	!LO:LB:g=original	!	!	!	!	!	!	!	!
!	!	!	!	!	!	!	!	!LO:MO:mod=*null:null	!	!	!	!	!	!	!	!
*	*	*	*	*	*	*	*	*clefC2	*	*	*	*	*	*	*	*
2F\	.	wszem	.	2c/	.	wszem	.	2c/	.	wszem	.	2a\	wſſem	wszem	.	.
=24-	=24-	=24-	=24-	=24-	=24-	=24-	=24-	=24-	=24-	=24-	=24-	=24-	=24-	=24-	=24-	=24-
1D	.	nie-	.	1f	.	nie-	.	1d	.	nie-	.	1a	nie-	nie-	.	.
!	!	!	!	!	!	!	!	!	!	!	!	!LO:SIC:v:t=custos cc	!	!	!	!
2D/	.	-pra-	.	2f\	.	-pra-	.	2d\	.	-pra-	.	2dd\	-prze-	-pra-	.	.
!	!	!	!	!	!	!	!	!	!	!	!	!LO:LB:g=original	!	!	!	!
=25-	=25-	=25-	=25-	=25-	=25-	=25-	=25-	=25-	=25-	=25-	=25-	=25-	=25-	=25-	=25-	=25-
*	*	*	*	*	*	*	*	*	*	*	*	*col	*	*	*	*
!	!	!	!	!	!	!	!	!	!	!	!	!LO:SIC:s=2.cc#i	!	!	!	!
1A	.	-wo-	.	1e	.	-wo-	.	1A	.	-wo-	.	2.cc\	-(woſ-	-wo-	.	.
.	.	.	.	.	.	.	.	.	.	.	.	4b\	.	.	.	.
*	*	*	*	*	*	*	*	*	*	*	*	*Xcol	*	*	*	*
!	!	!	!	!	!	!	!	!	!	!	!	!LO:SIC:s=2cc#i	!	!	!	!
2A\	.	-ściam	.	2e\	.	-ściam	.	2a\	.	-ściam	.	2cc\	-ciam)	-ściam	.	.
=26-	=26-	=26-	=26-	=26-	=26-	=26-	=26-	=26-	=26-	=26-	=26-	=26-	=26-	=26-	=26-	=26-
!LO:MO:mod=!null:null	!	!	!	!LO:MO:mod=!null:null	!	!	!	!LO:MO:mod=!null:null	!	!	!	!LO:MO:mod=!null:null	!	!	!	!
!LO:N:vis=1	!	!	!	!LO:N:vis=1	!	!	!	!LO:N:vis=1	!	!	!	!LO:N:vis=1	!	!	!	!
1.D	.	twym	.	1.d	.	twym	.	1.a	.	twym	.	1.dd	twy(m)	twym	.	.
=27-	=27-	=27-	=27-	=27-	=27-	=27-	=27-	=27-	=27-	=27-	=27-	=27-	=27-	=27-	=27-	=27-
2r	.	.	.	2r	.	.	.	2r	.	.	.	2r	.	.	.	.
!	!	!	!	!LO:SIC:v:t=custos d	!	!	!	!	!	!	!	!	!	!	!	!
2r	.	.	.	2r	.	.	.	2r	.	.	.	2r	.	.	.	.
!	!	!	!	!LO:LB:g=original	!	!	!	!	!	!	!	!	!	!	!	!
2D/	.	i	.	2d\	.	i	.	2f\	.	i	.	2dd\	Y	i	.	.
=28-	=28-	=28-	=28-	=28-	=28-	=28-	=28-	=28-	=28-	=28-	=28-	=28-	=28-	=28-	=28-	=28-
1A	.	rad	.	1e	.	rad	.	2.e\	.	rad	.	1cc	rad	rad	.	.
.	.	.	.	.	.	.	.	4d\	.	.	.	.	.	.	.	.
2A\	.	u-	.	2e\	.	u-	.	2c/	.	u-	.	2cc\	u-	u-	.	.
=29-	=29-	=29-	=29-	=29-	=29-	=29-	=29-	=29-	=29-	=29-	=29-	=29-	=29-	=29-	=29-	=29-
1D	.	-zdra-	.	1f	.	-zdra-	.	1d	.	-zdra-	.	1a	-zdra-	-zdra-	.	.
2D/	.	-wia	.	2f\	.	-wia	.	2d\	.	-wia	.	2a\	-(wia)	-wia	.	.
=30-	=30-	=30-	=30-	=30-	=30-	=30-	=30-	=30-	=30-	=30-	=30-	=30-	=30-	=30-	=30-	=30-
!LO:MO:mod=!null:null	!	!	!	!LO:MO:mod=!null:null	!	!	!	!	!	!	!	!LO:MO:mod=!null:null	!	!	!	!
!LO:N:vis=1	!	!	!	!LO:N:vis=1	!	!	!	!	!	!	!	!LO:N:vis=1	!	!	!	!
!LO:SIC:v:t=custos C	!	!	!	!	!	!	!	!	!	!	!	!	!	!	!	!
1E	.	wszy-	.	1.g	.	wszy-	.	1B	.	wszy-	.	1.g	wſſy-	wszy-	.	.
!LO:LB:g=original	!	!	!	!	!	!	!	!	!	!	!	!	!	!	!	!
!	!	!	!	!	!	!	!	!LO:SIC:v:t=custos A	!	!	!	!	!	!	!	!
2C/	.	.	.	.	.	.	.	2c/	.	.	.	.	.	.	.	.
!	!	!	!	!	!	!	!	!LO:LB:g=original	!	!	!	!	!	!	!	!
=31-	=31-	=31-	=31-	=31-	=31-	=31-	=31-	=31-	=31-	=31-	=31-	=31-	=31-	=31-	=31-	=31-
!	!	!	!	!	!	!	!	!LO:MO:mod=*null:null	!	!	!	!	!	!	!	!
*	*	*	*	*	*	*	*	*clefC3	*	*	*	*	*	*	*	*
1F	.	-tki	.	1c	.	-tki	.	2.A/	.	-tki	.	1a	-t(ki)	-tki	.	.
.	.	.	.	.	.	.	.	4B/	.	.	.	.	.	.	.	.
2C/	.	nie-	.	2e\	.	nie-	.	2c/	.	nie-	.	2g/	nie-	nie-	.	.
=32-	=32-	=32-	=32-	=32-	=32-	=32-	=32-	=32-	=32-	=32-	=32-	=32-	=32-	=32-	=32-	=32-
1D	.	-mo-	.	1d	.	-mo-	.	1A	.	-mo-	.	1f	-m(o-	-mo-	.	.
2G\	.	-cy	.	2B/	.	-cy	.	2G/	.	-cy	.	2d/	-ci)	-cy	.	.
=33-	=33-	=33-	=33-	=33-	=33-	=33-	=33-	=33-	=33-	=33-	=33-	=33-	=33-	=33-	=33-	=33-
2E\	.	twe	.	2c\	.	twe	.	2G/	.	twe	.	1g	t(we)	twe	.	.
1D	.	cię-	.	1A	.	cię-	.	1d	.	cię-	.	.	.	.	.	.
!	!	!	!	!	!	!	!	!	!	!	!	!LO:SIC:s=2f#i	!	!	!	!
.	.	.	.	.	.	.	.	.	.	.	.	2f/	ćię-	cię-	.	.
=34-	=34-	=34-	=34-	=34-	=34-	=34-	=34-	=34-	=34-	=34-	=34-	=34-	=34-	=34-	=34-	=34-
!LO:MO:mod=!null:null	!	!	!	!LO:MO:mod=!null:null	!	!	!	!LO:MO:mod=!null:null	!	!	!	!LO:MO:mod=!null:null	!	!	!	!
!LO:N:vis=1	!	!	!	!LO:N:vis=1	!	!	!	!LO:N:vis=1	!	!	!	!LO:N:vis=1	!	!	!	!
!	!	!	!	!	!	!	!	!	!	!	!	!LO:SIC:v:t=custos g	!	!	!	!
1.E	.	-żkie	.	1.G	.	-żkie	.	1.B	.	-żkie	.	1.g	-ſkie.	-żkie	.	.
=35-	=35-	=35-	=35-	=35-	=35-	=35-	=35-	=35-	=35-	=35-	=35-	=35-	=35-	=35-	=35-	=35-
2r	.	.	.	2r	.	.	.	2ryy	.	.	.	2ryy	.	.	.	.
!	!	!	!	!	!	!	!	!	!	!	!	!LO:LB:g=original	!	!	!	!
2r	.	.	.	2r	.	.	.	2r	.	.	.	2r	.	.	.	.
2E\	.	ży-	.	2G/	.	ży-	.	2B/	.	ży-	.	2g/	Zy-	ży-	.	.
=36-	=36-	=36-	=36-	=36-	=36-	=36-	=36-	=36-	=36-	=36-	=36-	=36-	=36-	=36-	=36-	=36-
!	!	!	!	!LO:SIC:v:t=custos c	!	!	!	!	!	!	!	!	!	!	!	!
1AA	.	-wot	.	1c	.	-wot	.	4A/	.	-wot	.	1e	-w(ot)	-wot	.	.
.	.	.	.	.	.	.	.	4B/	.	.	.	.	.	.	.	.
.	.	.	.	.	.	.	.	4c\	.	.	.	.	.	.	.	.
.	.	.	.	.	.	.	.	4d\	.	.	.	.	.	.	.	.
!	!	!	!	!LO:LB:g=original	!	!	!	!	!	!	!	!	!	!	!	!
!	!	!	!	!	!	!	!	!LO:SIC:v:t=custos e	!	!	!	!	!	!	!	!
2AA/	.	twój	.	2c/	.	twój	.	2e\	.	twój	.	2a\	tw(oy)	twój	.	.
!	!	!	!	!	!	!	!	!LO:LB:g=original	!	!	!	!	!	!	!	!
=37-	=37-	=37-	=37-	=37-	=37-	=37-	=37-	=37-	=37-	=37-	=37-	=37-	=37-	=37-	=37-	=37-
1E	.	wy-	.	1B	.	wy-	.	1e	.	wy-	.	1g	wy-	wy-	.	.
2F\	.	-ku-	.	2c/	.	-ku-	.	2c/	.	-ku-	.	2a\	-ku-	-ku-	.	.
=38-	=38-	=38-	=38-	=38-	=38-	=38-	=38-	=38-	=38-	=38-	=38-	=38-	=38-	=38-	=38-	=38-
!LO:MO:mod=!null:null	!	!	!	!LO:MO:mod=!null:null	!	!	!	!LO:MO:mod=!null:null	!	!	!	!LO:MO:mod=!null:null	!	!	!	!
!LO:N:vis=1	!	!	!	!LO:N:vis=1	!	!	!	!LO:N:vis=1	!	!	!	!LO:N:vis=1	!	!	!	!
1.D	.	-pu-	.	1.d	.	-pu-	.	1d	.	-pu-	.	1.f	-p(u-	-pu-	.	.
.	.	.	.	.	.	.	.	2A/	.	.	.	.	.	.	.	.
=39-	=39-	=39-	=39-	=39-	=39-	=39-	=39-	=39-	=39-	=39-	=39-	=39-	=39-	=39-	=39-	=39-
!LO:SIC:v:t=custos F	!	!	!	!	!	!	!	!	!	!	!	!	!	!	!	!
1G	.	-je	.	1d	.	-je	.	2B/	.	-je	.	1d	-ie)	-je	.	.
.	.	.	.	.	.	.	.	2G/	.	.	.	.	.	.	.	.
!LO:LB:g=original	!	!	!	!	!	!	!	!	!	!	!	!	!	!	!	!
4F\	.	z_za-	.	2d\	.	z_za-	.	2A/	.	z_za-	.	2dd\	z za-	z_za-	.	.
4E\	.	.	.	.	.	.	.	.	.	.	.	.	.	.	.	.
=40-	=40-	=40-	=40-	=40-	=40-	=40-	=40-	=40-	=40-	=40-	=40-	=40-	=40-	=40-	=40-	=40-
1D	.	-tra-	.	1f	.	-tra-	.	1a	.	-tra-	.	1dd	-t(ra-	-tra-	.	.
2E\	.	-ce-	.	2e\	.	-ce-	.	2g\	.	-ce-	.	4cc\	-ce-	-ce-	.	.
.	.	.	.	.	.	.	.	.	.	.	.	4b\	.	.	.	.
=41-	=41-	=41-	=41-	=41-	=41-	=41-	=41-	=41-	=41-	=41-	=41-	=41-	=41-	=41-	=41-	=41-
2.F\	.	-nia	.	1c	.	-nia	.	1f	.	-nia	.	1a	-nia	-nia	.	.
4E\	.	.	.	.	.	.	.	.	.	.	.	.	.	.	.	.
2D/	.	wy-	.	2d\	.	wy-	.	2f\	.	wy-	.	2b\	w(y)-	wy-	.	.
=42-	=42-	=42-	=42-	=42-	=42-	=42-	=42-	=42-	=42-	=42-	=42-	=42-	=42-	=42-	=42-	=42-
2C/	.	-ba-	.	2e\	.	-ba-	.	1g	.	-ba-	.	1cc	-ba-	-ba-	.	.
1G	.	-wu-	.	1d	.	-wu-	.	.	.	.	.	.	.	.	.	.
.	.	.	.	.	.	.	.	2g\	.	-wu-	.	2b\	-(wu-	-wu-	.	.
=43-	=43-	=43-	=43-	=43-	=43-	=43-	=43-	=43-	=43-	=43-	=43-	=43-	=43-	=43-	=43-	=43-
!LO:SIC:s=1.C;	!	!	!	!LO:SIC:s=1.c;	!	!	!	!LO:SIC:s=1.g;	!	!	!	!LO:SIC:s=1.cc;	!	!	!	!
1.Cl	.	-je.	.	1.cl	.	-je.	.	1.gl	.	-je.	.	1.ccl	-ie.)	-je.	.	.
==	==	==	==	==	==	==	==	==	==	==	==	==	==	==	==	==
*-	*-	*-	*-	*-	*-	*-	*-	*-	*-	*-	*-	*-	*-	*-	*-	*-
!!!system-decoration: [(*)]
!!LO:MO:ori
!!!RDF**kern: l = terminal long
!!LO:MO:mod
!! !!!RDF**kern: i = editorial accidental
!!LO:MO:end
!!!filter-modern: shed -e "s/TX(.*):t=P:/tx$1:t=P:/LG" | shed -e "s/^custos:/Xcustos:/I" | sic -sq | modori -m | autostem -r | tie -s | humtr -p | shed -e "s/-//B"
!!!ENC: Mateusz Solarz
!!!END: 2022-04-29
!!!ENC: Wojciech Jakubiak-Danek
!!!END: 2022-05-10
!!!ENC-modern: Andrzej Kubiczek
!!!END-modern: 2022-07-25
